X: 17265
T: Here'la
R: reel
M: 4/4
K: Gmajor
|:dB (3BBB BAGA|Bddg edge|dB (3BBB BAGA|1 BddB A2 ge:|2 BddB A2 Bd||
eg (3ggg eaab|geeg edBd|eg (3ggg eaab|gedB A2 (3Bcd|
eg (3ggg eaab|geeg edBd|eg (3ggg ea (3aaa|gabg abge||

